svg/300/sharp/4g_mobiledata_badge.svg

<svg xmlns="http://www.w3.org/2000/svg" width="48" height="48" viewBox="0 -960 960 960"><path d="M525.769-290.001H778.46v-214.306h-84.691v45.383h39.923v123.54h-162.54v-289.232H778.46v-45.383H525.769v379.998Zm-192.922 0h45.383v-127.307h83.846v-45.384H378.23v-207.307h-45.383v207.307H215.384v-207.307h-45.383v252.691h162.846v127.307Zm-272.845 150v-679.998h839.997v679.998H60.001Zm45.383-45.384h749.23v-589.23h-749.23v589.23Zm0 0v-589.23 589.23Z"/></svg>

<svg xmlns="http://www.w3.org/2000/svg" width="48" height="48" viewBox="0 -960 960 960"><path d="M525.77-290h252.69v-214.31h-84.69v45.39h39.92v123.54H571.15v-289.24h207.31V-670H525.77v380Zm-192.92 0h45.38v-127.31h83.85v-45.38h-83.85V-670h-45.38v207.31H215.38V-670H170v252.69h162.85V-290ZM60-140v-680h840v680H60Zm45.39-45.39h749.22v-589.22H105.39v589.22Zm0 0v-589.22 589.22Z"/></svg>
